app/assets/images/icons/weather/overcast.svg

<svg width="32" height="232" viewBox="0 0 32 232" xmlns="http://www.w3.org/2000/svg"><g fill="none" fill-rule="evenodd"><path d="M30.085 24H3.838c-.07 0-.138-.016-.202-.044C1.428 22.956 0 20.75 0 18.33c0-2.97 2.14-5.52 5.032-6.062.837-2.824 3.42-4.768 6.39-4.768 3.078 0 5.706 2.09 6.456 4.99 1.545-1.336 3.534-2.088 5.583-2.088 4.71 0 8.54 3.83 8.54 8.538 0 1.74-.523 3.415-1.512 4.848-.092.132-.242.21-.403.21zm-26.14-.98h25.878c.785-1.22 1.198-2.626 1.198-4.08 0-4.168-3.39-7.56-7.56-7.56-2.12 0-4.087.862-5.538 2.428-.13.14-.33.19-.512.132-.182-.06-.312-.22-.334-.41-.324-2.88-2.755-5.05-5.655-5.05-2.626 0-4.898 1.783-5.522 4.337-.05.196-.212.343-.412.37-2.57.34-4.507 2.552-4.507 5.144 0 2 1.16 3.83 2.966 4.69z" fill="#3B444F"/><path d="M30.085 64H3.838c-.07 0-.138-.016-.202-.044C1.428 62.956 0 60.75 0 58.33c0-2.97 2.14-5.52 5.032-6.062.837-2.824 3.42-4.768 6.39-4.768 3.078 0 5.706 2.09 6.456 4.99 1.545-1.336 3.534-2.088 5.583-2.088 4.71 0 8.54 3.83 8.54 8.538 0 1.74-.523 3.415-1.512 4.848-.092.132-.242.21-.403.21zm-26.14-.98h25.878c.785-1.22 1.198-2.626 1.198-4.08 0-4.168-3.39-7.56-7.56-7.56-2.12 0-4.087.862-5.538 2.428-.13.14-.33.19-.512.132-.182-.06-.312-.22-.334-.41-.324-2.88-2.755-5.05-5.655-5.05-2.626 0-4.898 1.783-5.522 4.337-.05.196-.212.343-.412.37-2.57.34-4.507 2.552-4.507 5.144 0 2 1.16 3.83 2.966 4.69z" fill="#67737B"/><path d="M30.085 104H3.838c-.07 0-.138-.016-.202-.044C1.428 102.956 0 100.75 0 98.33c0-2.97 2.14-5.52 5.032-6.062.837-2.824 3.42-4.768 6.39-4.768 3.078 0 5.706 2.09 6.456 4.99 1.545-1.336 3.534-2.088 5.583-2.088 4.71 0 8.54 3.83 8.54 8.538 0 1.74-.523 3.415-1.512 4.848-.092.132-.242.21-.403.21zm-26.14-.98h25.878c.785-1.22 1.198-2.626 1.198-4.08 0-4.168-3.39-7.56-7.56-7.56-2.12 0-4.087.862-5.538 2.428-.13.14-.33.19-.512.132-.182-.06-.312-.22-.334-.41-.324-2.88-2.755-5.05-5.655-5.05-2.626 0-4.898 1.783-5.522 4.337-.05.196-.212.343-.412.37-2.57.34-4.507 2.552-4.507 5.144 0 2 1.16 3.83 2.966 4.69z" fill="#fff"/><path d="M30.085 144H3.838c-.07 0-.138-.016-.202-.044-2.208-1-3.636-3.207-3.636-5.625 0-2.97 2.14-5.52 5.032-6.062.837-2.824 3.42-4.768 6.39-4.768 3.078 0 5.706 2.09 6.456 4.99 1.545-1.336 3.534-2.088 5.583-2.088 4.71 0 8.54 3.83 8.54 8.538 0 1.74-.523 3.415-1.512 4.848-.092.132-.242.21-.403.21zm-26.14-.98h25.878c.785-1.22 1.198-2.626 1.198-4.08 0-4.168-3.39-7.56-7.56-7.56-2.12 0-4.087.862-5.538 2.428-.13.14-.33.19-.512.132-.182-.06-.312-.22-.334-.41-.324-2.88-2.755-5.05-5.655-5.05-2.626 0-4.898 1.783-5.522 4.337-.05.196-.212.343-.412.37-2.57.34-4.507 2.552-4.507 5.144 0 2 1.16 3.83 2.966 4.69z" fill="#206FAC"/></g></svg>

<?xml version="1.0" encoding="UTF-8" standalone="no"?>
<svg width="32px" height="232px" viewBox="0 0 32 232" version="1.1" xmlns="http://www.w3.org/2000/svg" xmlns:xlink="http://www.w3.org/1999/xlink" xmlns:sketch="http://www.bohemiancoding.com/sketch/ns">
    <!-- Generator: Sketch 3.0.3 (7891) - http://www.bohemiancoding.com/sketch -->
    <title>overcast</title>
    <desc>Created with Sketch.</desc>
    <defs></defs>
    <g id="Weather" stroke="none" stroke-width="1" fill="none" fill-rule="evenodd" sketch:type="MSPage">
        <path d="M30.085,23.999 L3.838,23.999 C3.769,23.999 3.7,23.984 3.636,23.956 C1.428,22.957 0,20.749 0,18.331 C0,15.36 2.141,12.81 5.032,12.268 C5.869,9.444 8.451,7.5 11.421,7.5 C14.5,7.5 17.128,9.589 17.878,12.49 C19.423,11.154 21.412,10.402 23.461,10.402 C28.17,10.402 32,14.232 32,18.94 C32,20.679 31.477,22.355 30.488,23.788 C30.396,23.92 30.246,23.999 30.085,23.999 L30.085,23.999 Z M3.946,23.02 L29.823,23.02 C30.608,21.8 31.021,20.394 31.021,18.94 C31.021,14.772 27.63,11.38 23.461,11.38 C21.341,11.38 19.373,12.242 17.922,13.808 C17.792,13.949 17.591,13.999 17.41,13.94 C17.228,13.88 17.098,13.719 17.076,13.529 C16.752,10.651 14.321,8.479 11.421,8.479 C8.794,8.479 6.522,10.263 5.898,12.817 C5.849,13.013 5.686,13.16 5.486,13.186 C2.917,13.527 0.979,15.739 0.979,18.331 C0.979,20.331 2.141,22.16 3.946,23.02 L3.946,23.02 Z" id="overcast" fill="#3B444F" sketch:type="MSShapeGroup"></path>
        <path d="M30.085,63.999 L3.838,63.999 C3.769,63.999 3.7,63.984 3.636,63.956 C1.428,62.957 0,60.749 0,58.331 C0,55.36 2.141,52.81 5.032,52.268 C5.869,49.444 8.451,47.5 11.421,47.5 C14.5,47.5 17.128,49.589 17.878,52.49 C19.423,51.154 21.412,50.402 23.461,50.402 C28.17,50.402 32,54.232 32,58.94 C32,60.679 31.477,62.355 30.488,63.788 C30.396,63.92 30.246,63.999 30.085,63.999 L30.085,63.999 Z M3.946,63.02 L29.823,63.02 C30.608,61.8 31.021,60.394 31.021,58.94 C31.021,54.772 27.63,51.38 23.461,51.38 C21.341,51.38 19.373,52.242 17.922,53.808 C17.792,53.949 17.591,53.999 17.41,53.94 C17.228,53.88 17.098,53.719 17.076,53.529 C16.752,50.651 14.321,48.479 11.421,48.479 C8.794,48.479 6.522,50.263 5.898,52.817 C5.849,53.013 5.686,53.16 5.486,53.186 C2.917,53.527 0.979,55.739 0.979,58.331 C0.979,60.331 2.141,62.16 3.946,63.02 L3.946,63.02 Z" id="overcast-2" fill="#67737B" sketch:type="MSShapeGroup"></path>
        <path d="M30.085,103.999 L3.838,103.999 C3.769,103.999 3.7,103.984 3.636,103.956 C1.428,102.957 0,100.749 0,98.331 C0,95.36 2.141,92.81 5.032,92.268 C5.869,89.444 8.451,87.5 11.421,87.5 C14.5,87.5 17.128,89.589 17.878,92.49 C19.423,91.154 21.412,90.402 23.461,90.402 C28.17,90.402 32,94.232 32,98.94 C32,100.679 31.477,102.355 30.488,103.788 C30.396,103.92 30.246,103.999 30.085,103.999 L30.085,103.999 Z M3.946,103.02 L29.823,103.02 C30.608,101.8 31.021,100.394 31.021,98.94 C31.021,94.772 27.63,91.38 23.461,91.38 C21.341,91.38 19.373,92.242 17.922,93.808 C17.792,93.949 17.591,93.999 17.41,93.94 C17.228,93.88 17.098,93.719 17.076,93.529 C16.752,90.651 14.321,88.479 11.421,88.479 C8.794,88.479 6.522,90.263 5.898,92.817 C5.849,93.013 5.686,93.16 5.486,93.186 C2.917,93.527 0.979,95.739 0.979,98.331 C0.979,100.331 2.141,102.16 3.946,103.02 L3.946,103.02 Z" id="overcast-3" fill="#FFFFFF" sketch:type="MSShapeGroup"></path>
        <path d="M30.085,143.999 L3.838,143.999 C3.769,143.999 3.7,143.984 3.636,143.956 C1.428,142.957 0,140.749 0,138.331 C0,135.36 2.141,132.81 5.032,132.268 C5.869,129.444 8.451,127.5 11.421,127.5 C14.5,127.5 17.128,129.589 17.878,132.49 C19.423,131.154 21.412,130.402 23.461,130.402 C28.17,130.402 32,134.232 32,138.94 C32,140.679 31.477,142.355 30.488,143.788 C30.396,143.92 30.246,143.999 30.085,143.999 L30.085,143.999 Z M3.946,143.02 L29.823,143.02 C30.608,141.8 31.021,140.394 31.021,138.94 C31.021,134.772 27.63,131.38 23.461,131.38 C21.341,131.38 19.373,132.242 17.922,133.808 C17.792,133.949 17.591,133.999 17.41,133.94 C17.228,133.88 17.098,133.719 17.076,133.529 C16.752,130.651 14.321,128.479 11.421,128.479 C8.794,128.479 6.522,130.263 5.898,132.817 C5.849,133.013 5.686,133.16 5.486,133.186 C2.917,133.527 0.979,135.739 0.979,138.331 C0.979,140.331 2.141,142.16 3.946,143.02 L3.946,143.02 Z" id="overcast-4" fill="#206FAC" sketch:type="MSShapeGroup"></path>
    </g>
</svg>
